X:40
T:Arkansas Traveller
C:Traditional American
S:Colin Hume's website,  colinhume.com  - chords can also be printed below the stave.
Q:1/2=120
M:2/2
R:Reel
L:1/4
K:A
P:A
|: E | "A"A/c/B/A/ "D"FF | "E7"EE "A"A2 | "E7"BB "A"cc | "Bm"B/c/B/A/ "E7"FE |\
"A"A/c/B/A/ "D"FF | "E7"EE "A"A2 | "A"a/g/a/e/ "D"fe/d/ | "E7"cB "A"A :|
P:B
|: c/d/ | "A"ec/c/ "E7"dB | "A"cA "E7"BE | "A"Ac/c/ "Bm"Bd | "A"c/d/e "E7"B2 |\
"A"ec/c/ "E7"dB | "A"cA "E7"Be | "A"a/g/a/e/ "D"fe/d/ | "E7"cB "A"A :|

